X: 063
M: 2/2
L: 1/8
K: G
|: d2!f!e2 |\
dcBc d2e2 | dcBc d2e2 |
d2ed cBAG | !+!F2D2 EFGE |\
edcB !+!A3G | G4 B2c2 |\
edcB !+!A3!+!G | G4 :|

